X:53
T:The Swallow
S:Petrie's Third Collection of Strathspey Reels and Country Dances &c.
Z:Steve Wyrick , 7/31/05
N:Petrie's Third Collection, page 21
L:1/8
M:C
R:Reel
K:D
A|FD F/G/A d2dg|f2df eEEA|FD F/G/A d2dg|faef dDD:|g|fdfg ae-eg|fdgf eEEg|
fdfg ae-eg|fdec dD-Dg|fdfg aeeg|fdgf eE-Eg|fdge afbg|fdec dDD|]
